X:1
T:Deer-Foot -- Hornpipe
R:hornpipe
B:Cole's 1000 Fiddle Tunes
M:2/4
L:1/16
K:F
uc2|cfaf gcde|fegf afga|bgaf gdbg|fedc cBAB|
cfaf gcde|fcaf gcde|{g}fefd cBAG|F2F2F2:|
|:vcB|Acfe dcBA|BGgf edcB|Acag fedc|cBAB G2vcuB|
Acfe dBgf|ecag fedc|dfed cBAG|F2F2F2:|
